X:1
T:Title
%%score { ( 1 3 ) | ( 2 4 ) }
L:1/8
Q:1/4=93
M:6/8
K:Ab
V:1 treble nm="Grand Piano"
V:3 treble 
V:2 treble 
V:4 treble 
V:1
 cdc [Ec][EB][EA] | [FA][EG]F E3 | G2 G GFG | A3 E3 | [Ec][Fd][Ec] [Ec][EB][EA] | %5
w: L.~E.~Jones * * * * *|||||
 [FA][EG][DF] [CE]3 | G2 A BFG | [CA]6 | [Ec]3 [B,EG]2 B | [C-A]3 C3 | G2 A [GB]2 [Ac] | [Gd]6 | %12
w: |||||||
 [Ec]3 e2 A | [FB]3 [DF]3 | z B,B, A2 B | A6 |] %16
w: ||||
V:2
 [A,E][A,F][K:bass][A,E] [A,,A,][B,,G,][C,A,] | [D,A,][D,A,][D,A,D] [A,C]3 | %2
 [E,B,D]2 [E,B,D] [E,B,D][E,B,D][E,B,D] | [A,C]3 [A,C]3 | %4
 [A,,A,][A,,A,][A,,A,] [A,,A,][B,,G,][C,A,] | [D,A,][D,A,][D,A,] [A,,A,]3 | %6
 [E,B,D]2 [E,A,C] [E,G,D][E,G,D][E,D] | [A,,E,]6 | A,A,A, E,2 D | A,,C,E, A,3 | D2 D [E,E]3 | %11
 [E,B,]2 E, E,3 | A,A,A,[K:treble] [A,CA]2 [A,C_G] | [D,D]D,D, D,2 D, | E,E,E, [E,B,C]2 [E,D] | %15
 .E,3 z3 |] %16
V:3
 x6 | x6 | x6 | x6 | x6 | x6 | x6 | x6 | x6 | A,A,A, E3 | x6 | z2 B, B,3 | x6 | z DD A,2 A, | %14
 [DG]3 z3 | CDD C3 |] %16
V:4
 x2[K:bass] x4 | x6 | x6 | x6 | x6 | x6 | x6 | x6 | x6 | x6 | [E,B,]3 z3 | x6 | x3[K:treble] x3 | %13
 x6 | x6 | A,,-[A,,-F,][A,,-F,] [A,,E,]3 |] %16

